src/images/svg/be-square/frontend.svg

<svg width="48" height="48" viewBox="0 0 48 48" fill="none" xmlns="http://www.w3.org/2000/svg">
<path d="M22.6383 33.602C22.5975 33.602 22.5564 33.5977 22.5149 33.5891C22.1938 33.522 21.9882 33.2092 22.0559 32.8908L24.4528 21.6042C24.5204 21.2858 24.8355 21.0819 25.1569 21.149C25.4779 21.2161 25.6836 21.5286 25.6159 21.8473L23.219 33.1339C23.16 33.4115 22.9132 33.602 22.6383 33.602Z" fill="#FF444F"/>
<path d="M19.8196 31.0243C19.9314 31.1187 20.0684 31.1651 20.2044 31.1651C20.3725 31.1651 20.5397 31.0947 20.6574 30.9575C20.87 30.7098 20.8402 30.3378 20.5901 30.1266L17.2757 27.3274L20.5901 24.5283C20.8402 24.3174 20.87 23.9454 20.6574 23.6974C20.4445 23.4497 20.0694 23.4198 19.8196 23.6309L15.9736 26.8788C15.8413 26.991 15.7646 27.1548 15.7646 27.3274C15.7646 27.5005 15.8409 27.6643 15.9736 27.7764L19.8196 31.0243Z" fill="#FF444F"/>
<path d="M27.3434 30.9575C27.4608 31.0947 27.628 31.1651 27.7961 31.1651C27.9321 31.1651 28.0691 31.1187 28.1809 31.0243L32.0269 27.7764C32.1595 27.6643 32.2358 27.5005 32.2358 27.3274C32.2358 27.1548 32.1595 26.991 32.0269 26.8788L28.1809 23.6309C27.9315 23.4198 27.556 23.4497 27.3434 23.6974C27.1305 23.9454 27.1607 24.3174 27.4104 24.5283L30.7247 27.3274L27.4104 30.1266C27.1607 30.3378 27.1305 30.7098 27.3434 30.9575Z" fill="#FF444F"/>
<path fill-rule="evenodd" clip-rule="evenodd" d="M14.2735 13.0025C14.2735 14.0307 15.1175 14.8678 16.1543 14.8678C17.1914 14.8678 18.0352 14.0307 18.0352 13.0025C18.0352 11.974 17.1914 11.1372 16.1543 11.1372C15.1175 11.1372 14.2735 11.974 14.2735 13.0025ZM15.4621 13.0025C15.4621 12.6239 15.7729 12.316 16.1543 12.316C16.5361 12.316 16.8465 12.6239 16.8465 13.0025C16.8465 13.3811 16.5361 13.689 16.1543 13.689C15.7729 13.689 15.4621 13.3811 15.4621 13.0025Z" fill="#FF444F"/>
<path fill-rule="evenodd" clip-rule="evenodd" d="M10.3755 14.8489C9.33841 14.8489 8.49466 14.0121 8.49466 12.9835C8.49466 11.955 9.33841 11.1182 10.3755 11.1182C11.4126 11.1182 12.2564 11.955 12.2564 12.9835C12.2564 14.0121 11.4126 14.8489 10.3755 14.8489ZM10.3755 12.297C9.9941 12.297 9.68333 12.6052 9.68333 12.9835C9.68333 13.3621 9.9941 13.67 10.3755 13.67C10.7573 13.67 11.0677 13.3621 11.0677 12.9835C11.0677 12.6052 10.7573 12.297 10.3755 12.297Z" fill="#FF444F"/>
<path fill-rule="evenodd" clip-rule="evenodd" d="M20.0537 13.0212C20.0537 14.0498 20.8975 14.8866 21.9342 14.8866C22.9714 14.8866 23.8151 14.0498 23.8151 13.0212C23.8151 11.993 22.9714 11.1562 21.9342 11.1562C20.8975 11.1562 20.0537 11.993 20.0537 13.0212ZM21.2424 13.0212C21.2424 12.6426 21.5528 12.3347 21.9342 12.3347C22.316 12.3347 22.6264 12.6426 22.6264 13.0212C22.6264 13.3998 22.316 13.7077 21.9342 13.7077C21.5528 13.7077 21.2424 13.3998 21.2424 13.0212Z" fill="#FF444F"/>
<path fill-rule="evenodd" clip-rule="evenodd" d="M9.99057 39.75H38.0094C40.2097 39.75 42 37.9748 42 35.7924V12.2076C42 10.0255 40.2097 8.25 38.0094 8.25H9.99057C7.79032 8.25 6 10.0255 6 12.2076V35.7924C6 37.9748 7.79032 39.75 9.99057 39.75ZM40.8113 35.7924V17.6891H7.18868V35.7924C7.18868 37.3245 8.44568 38.5711 9.99057 38.5711H38.0094C39.5543 38.5711 40.8113 37.3245 40.8113 35.7924ZM7.18868 16.5103H40.8113V12.2076C40.8113 10.6755 39.5543 9.42887 38.0094 9.42887H9.99057C8.44568 9.42887 7.18868 10.6755 7.18868 12.2076V16.5103Z" fill="#FF444F"/>
</svg>

<svg xmlns="http://www.w3.org/2000/svg" width="48" height="48" fill="#ff444f"  xmlns:v="https://vecta.io/nano"><path d="M22.638 33.602a.57.57 0 0 1-.123-.013.59.59 0 0 1-.459-.698l2.397-11.287c.068-.318.383-.522.704-.455a.59.59 0 0 1 .459.698l-2.397 11.287c-.059.278-.306.468-.581.468zm-2.818-2.578a.6.6 0 0 0 .385.141c.168 0 .335-.07.453-.208.213-.248.183-.62-.067-.831l-3.314-2.799 3.314-2.799c.25-.211.28-.583.067-.831a.6.6 0 0 0-.838-.066l-3.846 3.248a.59.59 0 0 0-.209.449c0 .173.076.337.209.449l3.846 3.248zm7.523-.066c.117.137.285.208.453.208.136 0 .273-.046.385-.141l3.846-3.248c.133-.112.209-.276.209-.449a.59.59 0 0 0-.209-.449l-3.846-3.248a.6.6 0 0 0-.838.066c-.213.248-.183.62.067.831l3.314 2.799-3.314 2.799c-.25.211-.28.583-.067.831z"/><path d="M14.274 13.003c0 1.028.844 1.865 1.881 1.865s1.881-.837 1.881-1.865-.844-1.865-1.881-1.865-1.881.837-1.881 1.865zm1.189 0a.692.692 0 0 1 1.384 0 .692.692 0 0 1-1.384 0zm-5.087 1.846c-1.037 0-1.881-.837-1.881-1.865s.844-1.865 1.881-1.865 1.881.837 1.881 1.865-.844 1.865-1.881 1.865zm0-2.552a.69.69 0 0 0-.692.686.692.692 0 1 0 1.384 0 .69.69 0 0 0-.692-.686zm9.678.724c0 1.029.844 1.865 1.881 1.865s1.881-.837 1.881-1.865-.844-1.865-1.881-1.865-1.881.837-1.881 1.865zm1.189 0a.692.692 0 1 1 1.384 0 .692.692 0 1 1-1.384 0zM9.991 39.75H38.01c2.2 0 3.991-1.775 3.991-3.958V12.208c0-2.182-1.79-3.958-3.991-3.958H9.991C7.79 8.25 6 10.026 6 12.208v23.585c0 2.182 1.79 3.958 3.991 3.958zm30.821-3.958V17.689H7.189v18.103c0 1.532 1.257 2.779 2.802 2.779H38.01c1.545 0 2.802-1.247 2.802-2.779zM7.189 16.51h33.623v-4.303c0-1.532-1.257-2.779-2.802-2.779H9.991c-1.545 0-2.802 1.247-2.802 2.779v4.303z" fill-rule="evenodd"/></svg>
